_includes/icons/ios-cloud-sync.svg

<svg fill="#666" height="50" viewBox="0 0 50 50" width="50" xmlns="http://www.w3.org/2000/svg"><path d="m28.992188 8.546875c-5.214844 0-9.609375 3.113281-11.730469 7.523438-1.132813-.78125-2.429688-1.347657-3.90625-1.347657-3.714844 0-6.703125 2.941407-6.925781 6.601563-3.722657 1.347656-6.429688 4.828125-6.429688 9.003906 0 5.332031 4.339844 9.671875 9.671875 9.671875h31.425781c4.90625 0 8.902344-3.996094 8.902344-8.902344 0-4.550781-3.488281-8.179687-7.90625-8.699218.015625-.234375.046875-.460938.046875-.703125 0-7.25-5.898437-13.148438-13.148437-13.148438zm0 2c6.171875 0 11.148437 4.980469 11.148437 11.148438 0 .457031-.035156.914062-.09375 1.382812l-.140625 1.121094h1.132813c.121093 0 .136718 0 .058593 0 3.824219 0 6.902344 3.078125 6.902344 6.898437 0 3.824219-3.078125 6.902344-6.902344 6.902344h-31.425781c-4.25 0-7.671875-3.421875-7.671875-7.671875 0-3.535156 2.386719-6.488281 5.625-7.382812l.761719-.210938-.027344-.785156c-.003906-.140625-.011719-.210938-.011719-.21875 0-2.777344 2.230469-5.007813 5.007813-5.007813 1.390625 0 2.636719.5625 3.542969 1.46875l1.101562 1.105469.546875-1.464844c1.570313-4.246093 5.636719-7.285156 10.445313-7.285156zm-2.992188 8.453125c-3.957031 0-7.359375 2.949219-7.921875 6.859375-.003906.046875 0 .09375-.007812.140625h2.023437c.484375-2.859375 2.988281-5 5.90625-5 1.613281 0 3.121094.648438 4.234375 1.765625l-2.234375 2.234375h6v-6l-2.351562 2.351563c-1.484375-1.488282-3.5-2.351563-5.648438-2.351563zm5.910156 9c-.476562 2.832031-2.941406 5-5.910156 5-1.667969 0-3.242187-.613281-4.359375-1.640625l2.359375-2.359375h-6v6l2.226563-2.226562c1.488281 1.394531 3.574218 2.226562 5.773437 2.226562 4.070313 0 7.4375-3.058594 7.933594-7z"/></svg>

<svg xmlns="http://www.w3.org/2000/svg" viewBox="0 0 50 50" width="50" height="50" fill="#666"><path d="M 28.992188 8.546875 C 23.777344 8.546875 19.382813 11.660156 17.261719 16.070313 C 16.128906 15.289063 14.832031 14.722656 13.355469 14.722656 C 9.640625 14.722656 6.652344 17.664063 6.429688 21.324219 C 2.707031 22.671875 0 26.152344 0 30.328125 C 0 35.660156 4.339844 40 9.671875 40 L 41.097656 40 C 46.003906 40 50 36.003906 50 31.097656 C 50 26.546875 46.511719 22.917969 42.09375 22.398438 C 42.109375 22.164063 42.140625 21.9375 42.140625 21.695313 C 42.140625 14.445313 36.242188 8.546875 28.992188 8.546875 Z M 28.992188 10.546875 C 35.164063 10.546875 40.140625 15.527344 40.140625 21.695313 C 40.140625 22.152344 40.105469 22.609375 40.046875 23.078125 L 39.90625 24.199219 L 41.039063 24.199219 C 41.160156 24.199219 41.175781 24.199219 41.097656 24.199219 C 44.921875 24.199219 48 27.277344 48 31.097656 C 48 34.921875 44.921875 38 41.097656 38 L 9.671875 38 C 5.421875 38 2 34.578125 2 30.328125 C 2 26.792969 4.386719 23.839844 7.625 22.945313 L 8.386719 22.734375 L 8.359375 21.949219 C 8.355469 21.808594 8.347656 21.738281 8.347656 21.730469 C 8.347656 18.953125 10.578125 16.722656 13.355469 16.722656 C 14.746094 16.722656 15.992188 17.285156 16.898438 18.191406 L 18 19.296875 L 18.546875 17.832031 C 20.117188 13.585938 24.183594 10.546875 28.992188 10.546875 Z M 26 19 C 22.042969 19 18.640625 21.949219 18.078125 25.859375 C 18.074219 25.90625 18.078125 25.953125 18.070313 26 L 20.09375 26 C 20.578125 23.140625 23.082031 21 26 21 C 27.613281 21 29.121094 21.648438 30.234375 22.765625 L 28 25 L 34 25 L 34 19 L 31.648438 21.351563 C 30.164063 19.863281 28.148438 19 26 19 Z M 31.910156 28 C 31.433594 30.832031 28.96875 33 26 33 C 24.332031 33 22.757813 32.386719 21.640625 31.359375 L 24 29 L 18 29 L 18 35 L 20.226563 32.773438 C 21.714844 34.167969 23.800781 35 26 35 C 30.070313 35 33.4375 31.941406 33.933594 28 Z"/></svg>
